X:728
M:C|
L:1/8
K:G
d|gdbg fdaf|gdbg faaf|gdbg fdaf|gdec BGGd|gdbg fdaf|
gdbg faaf|gbaf gedc|BdAc BGG||

